X:1
T:Penlan, 76.76 D
T:Penlan, 76.76 D
T:David Jenkins, 1898
T:Public Domain Courtesy of the Cyber Hymnal™
C:David Jenkins, 1898
Z:Public Domain
Z:Courtesy of the Cyber Hymnal™
%%score ( 1 2 ) ( 3 4 )
L:1/8
Q:1/4=150
M:3/4
K:F
V:1 treble 
V:2 treble 
V:3 bass 
V:4 bass 
V:1
 [FA]2 | [Fc]4 [EB]2 | [FA]4 [DG]2 | [CF]2 [CE]4- | [CE]4 F2 | [EG]4 [FA]2 | [Ec]4 [EB]2 | [FA]6- | %8
 [FA]4 [FA]2 | [Fc]4 [FB]2 | [FA]4 [EG]2 | [DF]2 [CE]4- | [CE]4 [CE]2 | [CA]4 [Ec]2 | %14
 [D=B]4 [DE]2 | [CA]6- | [CA]4 [EA]2 | [Fc]4 [Fc]2 | [Fd]4 [FA]2 | [Ec]2 [Ec]4- | [Ec]4 [EA]2 | %21
 [Fc]4 [Fc]2 | [Fd]4 [FA]2 | [Ec]6- | [Ec]4 [GB]2 | [Af]4 [Ge]2 | d4 [Ac]2 | [EB]2 [FA]4- | %28
 [FA]4 [FA]2 | (G2 [^FA]2) [GB]2 | [EG]4 [CF]2 | [CF]6- | [CF]4 |] %33
V:2
 x2 | x6 | x6 | x6 | x4 F2 | x6 | x6 | x6 | x6 | x6 | x6 | x6 | x6 | x6 | x6 | x6 | x6 | x6 | x6 | %19
 x6 | x6 | x6 | x6 | x6 | x6 | x6 | (F2 G2) x2 | x6 | x6 | G2 x4 | x6 | x6 | x4 |] %33
V:3
 [F,C]2 | [A,C]4 [G,C]2 | [F,C]4 [B,,B,]2 | [C,A,]2 [C,G,]4- | [C,G,]4 [A,C]2 | [B,C]4 [A,C]2 | %6
 [G,C]4 [C,C]2 | [F,C]6- | [F,C]4 [F,C]2 | [A,,C]4 [B,,D]2 | [C,C]4 [^C,B,]2 | [D,A,]2 [E,A,]4- | %12
 [E,A,]4 [E,A,]2 | [E,A,]4 [E,A,]2 | [E,^G,]4 [E,G,]2 | [A,,A,]6- | [A,,A,]4 [A,C]2 | %17
 [F,A,]4 [F,A,]2 | [D,A,]4 [F,D]2 | [A,C]2 [A,C]4- | [A,C]4 [A,C]2 | [F,A,]4 [F,A,]2 | %22
 [D,A,]4 [F,D]2 | [A,C]6- | [A,C]4 [A,E]2 | D4 [A,^C]2 | (D2 E2) [A,F]2 | [G,C]2 [F,C]4- | %28
 [F,C]4 [F,C]2 | [B,D]2 [A,C]2 [G,B,]2 | [C,B,]4 [F,A,]2 | [F,A,]6- | [F,A,]4 |] %33
V:4
 x2 | x6 | x6 | x6 | x6 | x6 | x6 | x6 | x6 | x6 | x6 | x6 | x6 | x6 | x6 | x6 | x6 | x6 | x6 | %19
 x6 | x6 | x6 | x6 | x6 | x6 | D4 x2 | B,4 x2 | x6 | x6 | x6 | x6 | x6 | x4 |] %33

